!!!OTL: Magwalandini
!!!XEN: You Cowards
!!!CNT: African -- sub-Saharan -- Xhosa
**kern
*k[f#]
*M3/4
4dd
=1
4dd
8b
8a
8g
8b
=2
8d
8d
4dd
8b
8a
=3
4g
8d
8B
8A
8A
=4
8G
8G
4r
4dd
=5
4dd
8b
8a
8g
8b
=6
8d
8d
4dd
8b
8a
=7
4g
8d
8B
8A
8A
=8
8G
8G
8r
8dd
8ee
8ee
=9
8dd
8b
8g
8d
8e
8e
=10
8d
8d
8r
8dd
8ee
8ee
=11
8dd
8b
8g
8d
8e
8e
=12
8g
8g
8r
8dd
8ee
8ee
=13
8dd
8b
8g
8d
8e
8e
=14
8d
8d
8r
8dd
8ee
8ee
=15
8dd
8b
8g
8d
8e
8e
=16
8g
[8g
2g_
=17
2.g_
=18
2.g_
=19
4g]
4r
!! Repeat from the beginning.
4dd
=20
4dd
8b
8a
8g
8b
=21
8d
8d
4dd
8b
8a
=22
4g
8d
8B
8A
8A
=23
8G
8G
4r
4dd
=24
4dd
8b
8a
8g
8b
=25
8d
8d
4dd
8b
8a
=26
4g
8d
8B
8A
8A
=27
8G
8G
8r
8dd
8ee
8ee
=28
8dd
8b
8g
8d
8e
8e
=29
8d
8d
8r
8dd
8ee
8ee
=30
8dd
8b
8g
8d
8e
8e
=31
8g
8g
8r
8dd
8ee
8ee
=32
8dd
8b
8g
8d
8e
8e
=33
8d
8d
8r
8dd
8ee
8ee
=34
8dd
8b
8g
8d
8e
8e
=35
8g
[8g
2g_
=36
2.g_
=37
2.g_
=38
4g]
8r
!! Continuing
8b
8cc
8cc
=39
8b
[8b
8b]
8g
8a
8a
=40
8g
[8g
8g]
8d
8e
8e
=41
8d
[8d
8d]
8B
8c#
8c#
=42
8B
[8B
4B]
==
*-
!!!OPR: Miriam Makeba, "The World of African Song"
!!!PPP: Chicago
!!!PPR: Quadrangle Press (12 East Delaware Place)
!!!PDT: 1971///
!!!PPG: 63
!!!ENC: David Huron
!!!EMD: 1998/9/29/ Paul von Hippel updated this file in the following ways:
!!!EMD:  (1) changed the representation of slurs from curly braces to parentheses 
!!!EMD:  (2) changed freeform comments into reference records and tandem interpretations
!!!EMD:  (3) changed final barline from triple (===) to double (==)
!!!EMD:  (4) added key signature from printed source
!!!EEV: Version 2.0
